X:2035
T:Young men beware of jealousy 
C:Traditional
O:Isle of Man
S:Anne Clague, Ballaclague
Z:Clague collection
B:Kiaull Vannin #35
L:1/4
M:2/4 
Q:50 
K:D 
D|D>D|D>E|F A|F/E/ z/|A>^G|A B/c/|d e|{e}d z/A/| 
d/c/ B/A/|G/F/ E|c B|A D/ A/|G/F/ F|E/F/ G/A/|B A|D|| 
